src/icons/ce-budget_colored.svg

<svg height="56" viewBox="0 0 44 56" width="44" xmlns="http://www.w3.org/2000/svg"><path d="m32.8777778 14c6.6611111 4.4935806 11.1222222 12.9415121 11.1222222 22.7069615 0 14.4399715-9.8388889 19.2930385-22 19.2930385-12.16111111 0-22-4.853067-22-19.2930385 0-9.7654494 4.46111111-18.2133809 11.1222222-22.7069615 3.5444445.5386305 7.2111111.8382026 10.8777778.8382026s7.3333333-.2995721 10.8777778-.8382026zm-9.228046 7.56h-2.4576175c-.4795351 0-.8391865.362427-.8391865.8456629v2.1745618c-3.1769202.604045-5.3947701 3.5028566-5.0950607 6.8251038.2997095 3.2020423 3.1769202 5.6786266 6.5336661 5.6786266h1.6184311c.5994189 0 1.1388959.2410139 1.5584891.6638453.4195933.4234356.5994189 1.0274805.5394771 1.6315254-.1198838 1.0268764-1.0789541 1.8719353-2.21785 1.8719353h-2.1579081c-.6593608 0-1.1988378-.4832359-1.3187216-1.0872809-.1198838-.3618229-.4195932-.6638454-.8391864-.6638454h-2.5175595c-.2397675 0-.4795351.120809-.6593608.3020225-.1798256.1812135-.2397675.4228315-.2397675.6638454.2397675 2.5973933 2.2777918 4.6517501 4.7953512 4.9537726v2.1739577c0 .48384.3596514.846267.8391865.846267h2.4576175c.4795352 0 .8391865-.362427.8391865-.846267v-2.2343622c2.757327-.604045 4.8552932-2.8390112 5.0950607-5.4364045.1798257-1.8121348-.4195932-3.5638652-1.618431-4.8933681-1.1988378-1.2678903-2.9371527-2.0531488-4.6754675-2.0531488h-1.8581986c-.5994189 0-1.138896-.3020224-1.5584892-.7248539s-.5994189-1.0268764-.539477-1.6309213c.1198838-1.0274805 1.078954-1.8725394 2.21785-1.8725394h2.157908c.6593608 0 1.1988378.483236 1.3187216 1.0872809.0599419.361823.4195933.6638454.8391865.6638454h2.5175594c.2397676 0 .4795351-.1202049.6593608-.3020224.1798257-.1806095.2397676-.4222275.2397676-.6638454-.2397676-2.5973933-2.21785-4.6511461-4.7953513-4.9531686v-2.1745618c0-.4832359-.3596513-.8456629-.8391865-.8456629zm7.3758653-21.48100026c1.7542287-.41772633 3.3837374.88766844 2.8823501 2.34971059l-2.3815896 6.99691597c-2.9456502.36551054-6.1413674.5743737-9.5263576.5743737-3.3843647 0-6.5807086-.20886316-9.5263589-.5743737l-2.3815895-6.94470018c-.50138731-1.46204215 1.1281213-2.81965271 2.8829768-2.34971059 5.8913005 1.51425793 12.1586415 1.51425793 18.0505687-.05221579z" fill="#fdb813" fill-rule="evenodd"/></svg>

<?xml version="1.0" encoding="UTF-8"?>
<svg width="44px" height="56px" viewBox="0 0 44 56" version="1.1" xmlns="http://www.w3.org/2000/svg" xmlns:xlink="http://www.w3.org/1999/xlink">
    <!-- Generator: Sketch 62 (91390) - https://sketch.com -->
    <title>0 budget</title>
    <desc>Created with Sketch.</desc>
    <g id="GA-Use-cases" stroke="none" stroke-width="1" fill="none" fill-rule="evenodd">
        <g id="CD-not-enabled" transform="translate(-1327.000000, -195.000000)" fill="#FDB813">
            <g id="Top-Card-3" transform="translate(67.000000, 135.000000)">
                <g id="Budget" transform="translate(1208.000000, 0.000000)">
                    <g id="Group-8" transform="translate(52.000000, 60.000000)">
                        <path d="M32.8777778,14 C39.5388889,18.4935806 44,26.9415121 44,36.7069615 C44,51.146933 34.1611111,56 22,56 C9.83888889,56 0,51.146933 0,36.7069615 C0,26.9415121 4.46111111,18.4935806 11.1222222,14 C14.6666667,14.5386305 18.3333333,14.8382026 22,14.8382026 C25.6666667,14.8382026 29.3333333,14.5386305 32.8777778,14 Z M23.6497318,21.56 L21.1921143,21.56 C20.7125792,21.56 20.3529278,21.922427 20.3529278,22.4056629 L20.3529278,22.4056629 L20.3529278,24.5802247 C17.1760076,25.1842697 14.9581577,28.0830813 15.2578671,31.4053285 C15.5575766,34.6073708 18.4347873,37.0839551 21.7915332,37.0839551 L21.7915332,37.0839551 L23.4099643,37.0839551 C24.0093832,37.0839551 24.5488602,37.324969 24.9684534,37.7478004 C25.3880467,38.171236 25.5678723,38.7752809 25.5079305,39.3793258 C25.3880467,40.4062022 24.4289764,41.2512611 23.2900805,41.2512611 L23.2900805,41.2512611 L21.1321724,41.2512611 C20.4728116,41.2512611 19.9333346,40.7680252 19.8134508,40.1639802 C19.693567,39.8021573 19.3938576,39.5001348 18.9742644,39.5001348 L18.9742644,39.5001348 L16.4567049,39.5001348 C16.2169374,39.5001348 15.9771698,39.6209438 15.7973441,39.8021573 C15.6175185,39.9833708 15.5575766,40.2249888 15.5575766,40.4660027 C15.7973441,43.063396 17.8353684,45.1177528 20.3529278,45.4197753 L20.3529278,45.4197753 L20.3529278,47.593733 C20.3529278,48.077573 20.7125792,48.44 21.1921143,48.44 L21.1921143,48.44 L23.6497318,48.44 C24.129267,48.44 24.4889183,48.077573 24.4889183,47.593733 L24.4889183,47.593733 L24.4889183,45.3593708 C27.2462453,44.7553258 29.3442115,42.5203596 29.583979,39.9229663 C29.7638047,38.1108315 29.1643858,36.3591011 27.965548,35.0295982 C26.7667102,33.7617079 25.0283953,32.9764494 23.2900805,32.9764494 L23.2900805,32.9764494 L21.4318819,32.9764494 C20.832463,32.9764494 20.2929859,32.674427 19.8733927,32.2515955 C19.4537995,31.828764 19.2739738,31.2247191 19.3339157,30.6206742 C19.4537995,29.5931937 20.4128697,28.7481348 21.5517657,28.7481348 L21.5517657,28.7481348 L23.7096737,28.7481348 C24.3690345,28.7481348 24.9085115,29.2313708 25.0283953,29.8354157 C25.0883372,30.1972387 25.4479886,30.4992611 25.8675818,30.4992611 L25.8675818,30.4992611 L28.3851412,30.4992611 C28.6249088,30.4992611 28.8646763,30.3790562 29.044502,30.1972387 C29.2243277,30.0166292 29.2842696,29.7750112 29.2842696,29.5333933 C29.044502,26.936 27.0664196,24.8822472 24.4889183,24.5802247 L24.4889183,24.5802247 L24.4889183,22.4056629 C24.4889183,21.922427 24.129267,21.56 23.6497318,21.56 L23.6497318,21.56 Z M31.0255971,0.0789997391 C32.7798258,-0.338726588 34.4093345,0.966668183 33.9079472,2.42871033 L33.9079472,2.42871033 L31.5263576,9.4256263 C28.5807074,9.79113684 25.3849902,10 22,10 C18.6156353,10 15.4192914,9.79113684 12.4736411,9.4256263 L12.4736411,9.4256263 L10.0920516,2.48092612 C9.59066429,1.01888397 11.2201729,-0.338726588 12.9750284,0.13121553 C18.8663289,1.64547346 25.1336699,1.64547346 31.0255971,0.0789997391 Z" id="0-budget"></path>
                    </g>
                </g>
            </g>
        </g>
    </g>
</svg>
